X:60
T:Humours of Kiltyclogher
R:jig
N:Liam's liner notes say that Arty McGlynn inroduced this tune to him
D:Liam O'Flynn: The Piper's Call
Z:Bill Reeder
M:6/8
L:1/8
K:Dmix
B|AGE G2E|cEE EFG|~D3 D2 E|GED D2 B|
AGE G2 E|cEE EFG|~A3 BGE|~A3 A2:||
B|c2B c2d|ecA ABc|BAG GAB|dBG GAB|
c2B c2d|ecA ABc|BAG GAB|~A3 A2:||

